Assets/Textures/Provis3D-001.cube
TITLE "Generated by Foundry::LUT"
LUT_3D_SIZE 8
DOMAIN_MIN 0.000000 0.000000 0.000000
DOMAIN_MAX 0.903226 0.903226 0.903226
0.000000 0.000000 0.000000
0.080799 0.000000 0.000000
0.212779 0.000000 0.000000
0.399821 0.000000 0.000000
0.591542 0.000000 0.000000
0.763669 0.000000 0.000000
0.895649 0.000000 0.000000
0.971880 0.000000 0.000000
0.000000 0.081556 0.000000
0.081350 0.081889 0.000000
0.213991 0.082961 0.000000
0.402219 0.084948 0.000000
0.594874 0.087621 0.000000
0.766884 0.090697 0.000000
0.897651 0.093569 0.000000
0.972502 0.095936 0.000000
0.000000 0.215187 0.000000
0.083308 0.216035 0.000000
0.218269 0.218734 0.000000
0.410541 0.223635 0.000000
0.606188 0.229977 0.000000
0.777533 0.237215 0.000000
0.903380 0.244938 0.000000
0.974186 0.250155 0.000000
0.000000 0.409280 0.000000
0.088340 0.411541 0.000000
0.229026 0.418564 0.000000
0.430156 0.430354 0.000000
0.628032 0.443473 0.000000
0.792629 0.456795 0.000000
0.910841 0.467924 0.000000
0.976304 0.474712 0.000000
0.000000 0.613697 0.000000
0.098542 0.616977 0.000000
0.249656 0.626385 0.000000
0.458385 0.639325 0.000000
0.652603 0.652590 0.000000
0.809066 0.664872 0.000000
0.918765 0.674493 0.000000
0.978550 0.680132 0.000000
0.000000 0.788925 0.000000
0.116061 0.791202 0.000000
0.278685 0.797971 0.000000
0.489281 0.807490 0.000000
0.677254 0.816609 0.000000
0.824619 0.824580 0.000000
0.925947 0.830560 0.000000
0.980512 0.833978 0.000000
0.000000 0.911294 0.000000
0.131681 0.912478 0.000000
0.303991 0.915969 0.000000
0.514699 0.920668 0.000000
0.696547 0.924944 0.000000
0.836282 0.928533 0.000000
0.931174 0.931155 0.000000
0.981928 0.932616 0.000000
0.000000 0.976838 0.000000
0.141263 0.977177 0.000000
0.319353 0.978168 0.000000
0.529671 0.979490 0.000000
0.707535 0.980653 0.000000
0.842735 0.981624 0.000000
0.934002 0.982303 0.000000
0.982684 0.982678 0.000000
0.000000 0.000000 0.080398
0.080870 0.000000 0.080584
0.212934 0.000000 0.081165
0.400126 0.000000 0.082173
0.591980 0.000000 0.083612
0.764113 0.000000 0.085369
0.895932 0.000000 0.087091
0.971976 0.000000 0.088270
0.000000 0.081659 0.080834
0.081449 0.082010 0.081081
0.214205 0.083137 0.081860
0.402636 0.085215 0.083245
0.595451 0.087988 0.085152
0.767448 0.091169 0.087408
0.897971 0.094278 0.089723
0.972593 0.096906 0.091538
0.000000 0.215458 0.082366
0.083499 0.216347 0.082828
0.218681 0.219170 0.084295
0.411317 0.224271 0.086914
0.607205 0.230835 0.090294
0.778238 0.238488 0.094792
0.903736 0.246486 0.099676
0.974276 0.251891 0.103064
0.000000 0.410013 0.086316
0.088731 0.412359 0.087293
0.229846 0.419634 0.090311
0.431523 0.431724 0.096031
0.629272 0.445120 0.104980
0.793479 0.458670 0.114235
0.911260 0.469934 0.121855
0.976425 0.476786 0.126466
0.000000 0.614947 0.093691
0.099577 0.618203 0.096167
0.251388 0.627617 0.103690
0.460290 0.640739 0.115445
0.654156 0.654142 0.127550
0.810065 0.666504 0.138605
0.919230 0.676155 0.147175
0.978676 0.681801 0.152163
0.000000 0.789718 0.108636
0.117379 0.792027 0.112179
0.280827 0.798881 0.122358
0.491454 0.808482 0.136358
0.678923 0.817628 0.149612
0.825638 0.825599 0.161071
0.926408 0.831565 0.169592
0.980637 0.834966 0.174418
0.000000 0.911717 0.123327
0.133123 0.912911 0.127276
0.306297 0.916424 0.138473
0.516952 0.921138 0.153219
0.698203 0.925408 0.166545
0.837258 0.928984 0.177619
0.931605 0.931586 0.185597
0.982040 0.933029 0.190000
0.000000 0.976957 0.132596
0.142742 0.977298 0.136673
0.321700 0.978298 0.148172
0.531908 0.979617 0.163022
0.709143 0.980778 0.176068
0.843664 0.981740 0.186648
0.934401 0.982413 0.194092
0.982786 0.982781 0.198152
0.000000 0.000000 0.211726
0.081082 0.000000 0.212088
0.213398 0.000000 0.213220
0.401057 0.000000 0.215262
0.593304 0.000000 0.218108
0.765438 0.000000 0.221596
0.896778 0.000000 0.225016
0.972251 0.000000 0.227332
0.000000 0.081974 0.212588
0.081743 0.082377 0.213074
0.214846 0.083662 0.214606
0.403893 0.086006 0.217389
0.597186 0.089079 0.221157
0.769124 0.092571 0.225621
0.898891 0.096519 0.230139
0.972858 0.099745 0.233366
0.000000 0.216261 0.215621
0.084074 0.217274 0.216545
0.219921 0.220473 0.219465
0.413629 0.226159 0.224660
0.610227 0.233379 0.231307
0.780312 0.242255 0.239658
0.904747 0.251080 0.247957
0.974548 0.256957 0.253474
0.000000 0.412202 0.223502
0.089893 0.414797 0.225429
0.232287 0.422816 0.231361
0.435531 0.435737 0.242178
0.632910 0.449952 0.256904
0.795968 0.464135 0.271798
0.912484 0.475786 0.284012
0.976773 0.482816 0.291375
0.000000 0.618572 0.237995
0.102601 0.621772 0.242181
0.256452 0.631230 0.254733
0.465839 0.644870 0.273737
0.658685 0.658675 0.293133
0.812969 0.671244 0.310767
0.920583 0.680976 0.324403
0.979046 0.686643 0.332337
0.000000 0.792054 0.262814
0.121192 0.794453 0.268470
0.287031 0.801549 0.284793
0.497754 0.811363 0.307176
0.683767 0.820591 0.328282
0.828591 0.828552 0.346475
0.927744 0.834468 0.359975
0.981006 0.837819 0.367608
0.000000 0.912960 0.286393
0.137278 0.914178 0.292659
0.312955 0.917750 0.310518
0.523460 0.922498 0.334019
0.702988 0.926756 0.355148
0.840078 0.930286 0.372662
0.932841 0.932826 0.385226
0.982367 0.934221 0.392155
0.000000 0.977309 0.301197
0.146990 0.977658 0.307655
0.328469 0.978676 0.325971
0.538365 0.979989 0.349566
0.713783 0.981145 0.370195
0.846343 0.982075 0.386883
0.935542 0.982732 0.398588
0.983090 0.983082 0.404942
0.000000 0.000000 0.396883
0.081403 0.000000 0.397434
0.214098 0.000000 0.399181
0.402413 0.000000 0.402367
0.595257 0.000000 0.406827
0.767360 0.000000 0.412212
0.897991 0.000000 0.417430
0.972645 0.000000 0.420950
0.000000 0.082446 0.398218
0.082182 0.082922 0.398968
0.215802 0.084429 0.401346
0.405722 0.087135 0.405661
0.599703 0.090636 0.411480
0.771493 0.094643 0.418276
0.900106 0.100073 0.424486
0.973241 0.103671 0.428592
0.000000 0.217454 0.402942
0.084910 0.218637 0.404378
0.221718 0.222355 0.408895
0.416950 0.228844 0.416843
0.614386 0.237063 0.426853
0.783126 0.247560 0.437306
0.906048 0.257528 0.446350
0.974936 0.263832 0.452062
0.000000 0.415347 0.415109
0.091545 0.418290 0.418025
0.235805 0.427306 0.426979
0.441043 0.441223 0.440939
0.637809 0.456518 0.456255
0.799296 0.471445 0.471166
0.914098 0.483521 0.483241
0.977237 0.490747 0.490466
0.000000 0.623027 0.436436
0.106725 0.626292 0.440842
0.263317 0.636075 0.453956
0.473227 0.650377 0.473117
0.664643 0.664627 0.492210
0.816752 0.677418 0.509354
0.922347 0.687221 0.522513
0.979527 0.692897 0.530122
0.000000 0.795209 0.462238
0.126231 0.797711 0.467793
0.295197 0.805077 0.483945
0.505981 0.815122 0.505873
0.690015 0.824414 0.526232
0.832373 0.832338 0.543587
0.929435 0.838164 0.556355
0.981470 0.841445 0.563532
0.000000 0.914590 0.485627
0.142684 0.915840 0.491670
0.321599 0.919489 0.509041
0.531820 0.924254 0.531725
0.709088 0.928470 0.551803
0.843639 0.931922 0.568264
0.934384 0.934369 0.579949
0.982779 0.935709 0.586349
0.000000 0.977787 0.500078
0.152474 0.978139 0.506254
0.337185 0.979162 0.523933
0.546600 0.980469 0.546512
0.719644 0.981599 0.565962
0.849676 0.982492 0.581483
0.936959 0.983119 0.592253
0.983467 0.983457 0.598104
0.000000 0.000000 0.586281
0.081727 0.000000 0.586878
0.214808 0.000000 0.588785
0.403852 0.000000 0.592347
0.597284 0.000000 0.597273
0.769319 0.000000 0.603137
0.899219 0.000000 0.608759
0.973052 0.000000 0.612532
0.000000 0.082954 0.587756
0.082631 0.083500 0.588574
0.216779 0.085230 0.591181
0.407624 0.088299 0.595939
0.602282 0.092195 0.602270
0.773563 0.097560 0.609187
0.901306 0.103607 0.615175
0.973625 0.107431 0.619116
0.000000 0.218726 0.592991
0.085761 0.220071 0.594556
0.223553 0.224290 0.599480
0.420315 0.231579 0.608069
0.617937 0.241236 0.617930
0.785550 0.253059 0.626889
0.907284 0.263716 0.634226
0.975301 0.270316 0.638812
0.000000 0.418564 0.606255
0.093266 0.421826 0.609338
0.239652 0.431641 0.618384
0.446376 0.446525 0.630364
0.642431 0.462728 0.642440
0.802395 0.478224 0.653993
0.915591 0.490624 0.663238
0.977648 0.497990 0.668744
0.000000 0.626748 0.626755
0.110657 0.630230 0.630237
0.269812 0.640596 0.640614
0.480087 0.655496 0.655515
0.670073 0.670055 0.670081
0.820155 0.682982 0.683010
0.923916 0.692800 0.692831
0.979962 0.698447 0.698477
0.000000 0.798170 0.647128
0.130883 0.800750 0.651368
0.302697 0.808322 0.663750
0.513426 0.818517 0.680392
0.695589 0.827830 0.695602
0.835708 0.835672 0.708412
0.930919 0.841389 0.717751
0.981861 0.844574 0.722959
0.000000 0.916099 0.665094
0.147572 0.917362 0.669626
0.329386 0.921039 0.682724
0.539252 0.925816 0.699667
0.714429 0.929965 0.714445
0.846712 0.933323 0.726390
0.935705 0.935686 0.734774
0.983133 0.936968 0.739324
0.000000 0.978223 0.676037
0.157397 0.978572 0.680632
0.344951 0.979593 0.693834
0.553857 0.980900 0.710572
0.724707 0.981992 0.724723
0.852522 0.982856 0.735870
0.938174 0.983455 0.743541
0.983786 0.983780 0.747748
0.000000 0.000000 0.757523
0.082052 0.000000 0.758014
0.215532 0.000000 0.759581
0.405277 0.000000 0.762509
0.599234 0.000000 0.766499
0.771203 0.000000 0.771206
0.900380 0.000000 0.775672
0.973427 0.000000 0.778657
0.000000 0.083451 0.758735
0.083077 0.084068 0.759404
0.217753 0.086002 0.761528
0.409480 0.089405 0.765390
0.604736 0.093675 0.770453
0.775474 0.100405 0.775481
0.902428 0.106815 0.779943
0.973979 0.110827 0.782872
0.000000 0.219955 0.763016
0.086599 0.221460 0.764279
0.225318 0.226139 0.768245
0.423515 0.234143 0.775091
0.621161 0.245195 0.781916
0.787703 0.258116 0.787720
0.908400 0.269257 0.792519
0.975623 0.276101 0.795509
0.000000 0.421622 0.773680
0.095100 0.425136 0.776005
0.243518 0.435590 0.782393
0.451218 0.451369 0.790157
0.646559 0.468261 0.797868
0.805117 0.484192 0.805139
0.916887 0.496803 0.810900
0.978019 0.504260 0.814312
0.000000 0.630155 0.787832
0.114183 0.633811 0.790062
0.275598 0.644649 0.796697
0.486095 0.659974 0.806096
0.674783 0.674764 0.815147
0.823083 0.687761 0.823109
0.925247 0.697561 0.829104
0.980325 0.703162 0.832540
0.000000 0.800788 0.800842
0.134937 0.803427 0.803482
0.309218 0.811151 0.811208
0.519820 0.821438 0.821496
0.700324 0.830726 0.830786
0.838513 0.838475 0.838539
0.932153 0.844082 0.844143
0.982194 0.847190 0.847247
0.000000 0.917397 0.812063
0.151780 0.918674 0.814843
0.336062 0.922378 0.822904
0.545553 0.927135 0.833252
0.718896 0.931226 0.842160
0.849255 0.934500 0.849275
0.936784 0.936769 0.854226
0.983417 0.938008 0.856907
0.000000 0.978580 0.818834
0.161585 0.978934 0.821631
0.351558 0.979958 0.829695
0.559951 0.981242 0.839834
0.728925 0.982317 0.848296
0.854849 0.983153 0.854863
0.939170 0.983726 0.859412
0.984053 0.984046 0.861925
0.000000 0.000000 0.891298
0.082318 0.000000 0.891567
0.216132 0.000000 0.892443
0.406474 0.000000 0.894074
0.600865 0.000000 0.896307
0.772736 0.000000 0.898894
0.901337 0.000000 0.901348
0.973734 0.000000 0.902969
0.000000 0.083863 0.891974
0.083441 0.084535 0.892343
0.218557 0.086645 0.893528
0.411019 0.090309 0.895663
0.606693 0.095045 0.898425
0.777018 0.102673 0.900991
0.903339 0.109343 0.903350
0.974263 0.113479 0.904887
0.000000 0.220972 0.894371
0.087280 0.222602 0.895069
0.226774 0.227668 0.897255
0.426086 0.236277 0.900977
0.623675 0.248416 0.904240
0.789409 0.262087 0.906969
0.909271 0.273568 0.909286
0.975882 0.280582 0.910720
0.000000 0.424121 0.900247
0.096984 0.427780 0.901371
0.246796 0.438699 0.904471
0.455013 0.455172 0.908179
0.649754 0.472549 0.911815
0.807207 0.488774 0.915213
0.917887 0.501530 0.917897
0.978297 0.509045 0.919471
0.000000 0.632847 0.907070
0.116922 0.636625 0.908124
0.280077 0.647786 0.911259
0.490711 0.663418 0.915662
0.678359 0.678346 0.919860
0.825285 0.691361 0.923518
0.926252 0.701126 0.926262
0.980603 0.706679 0.927830
0.000000 0.802816 0.913215
0.138036 0.805489 0.914440
0.314183 0.813300 0.918032
0.524647 0.823647 0.922780
0.703864 0.832898 0.927033
0.840599 0.840559 0.930551
0.933060 0.846064 0.933078
0.982431 0.849099 0.934471
0.000000 0.918410 0.918439
0.154953 0.919683 0.919714
0.341089 0.923387 0.923419
0.550251 0.928124 0.928155
0.722205 0.932154 0.932186
0.851117 0.935355 0.935382
0.937571 0.937559 0.937585
0.983629 0.938761 0.938786
0.000000 0.978863 0.921560
0.164733 0.979216 0.922840
0.356505 0.980234 0.926532
0.564469 0.981504 0.931131
0.732001 0.982549 0.934943
0.856544 0.983368 0.937870
0.939910 0.983928 0.939915
0.984243 0.984237 0.941048
0.000000 0.000000 0.970370
0.082502 0.000000 0.970455
0.216517 0.000000 0.970724
0.407205 0.000000 0.971227
0.601845 0.000000 0.971897
0.773680 0.000000 0.972684
0.901909 0.000000 0.973437
0.973907 0.000000 0.973908
0.000000 0.084120 0.970580
0.083682 0.084827 0.970695
0.219063 0.087039 0.971056
0.411961 0.090856 0.971710
0.607788 0.096107 0.972517
0.777959 0.104021 0.973280
0.903884 0.110831 0.973988
0.974431 0.115039 0.974432
0.000000 0.221598 0.971311
0.087701 0.223305 0.971523
0.227660 0.228596 0.972191
0.427600 0.237689 0.973287
0.625103 0.250443 0.974200
0.790418 0.264439 0.974975
0.909790 0.276109 0.975631
0.976038 0.283201 0.976042
0.000000 0.425623 0.973108
0.098121 0.429374 0.973418
0.248764 0.440572 0.974276
0.457272 0.457433 0.975314
0.651634 0.475069 0.976337
0.808432 0.491437 0.977281
0.918457 0.504277 0.978024
0.978456 0.511803 0.978462
0.000000 0.634468 0.975007
0.118540 0.638305 0.975302
0.282713 0.649633 0.976184
0.493399 0.665432 0.977409
0.680432 0.680416 0.978571
0.826557 0.693434 0.979579
0.926829 0.703169 0.980333
0.980757 0.708694 0.980763
0.000000 0.803990 0.976729
0.139835 0.806687 0.977068
0.317055 0.814553 0.978060
0.527435 0.824921 0.979375
0.705901 0.834139 0.980547
0.841783 0.841746 0.981514
0.933582 0.847188 0.982199
0.982567 0.850190 0.982573
0.000000 0.918975 0.978173
0.156783 0.920256 0.978527
0.343986 0.923969 0.979552
0.552943 0.928685 0.980855
0.724086 0.932683 0.981957
0.852163 0.935836 0.982825
0.938017 0.938005 0.983421
0.983743 0.939199 0.983747
0.000000 0.979017 0.979035
0.166544 0.979371 0.979387
0.359335 0.980393 0.980409
0.567047 0.981649 0.981657
0.733739 0.982697 0.982710
0.857510 0.983491 0.983504
0.940320 0.984041 0.984053
0.984366 0.984356 0.984368
