Assets/Textures/Provis3D-001.cube
TITLE "Generated by Foundry::LUT"
LUT_3D_SIZE 5
DOMAIN_MIN 0.000000 0.000000 0.000000
DOMAIN_MAX 0.903226 0.903226 0.903226
0.000000 0.000000 0.000000
0.171532 0.000000 0.000000
0.498178 0.000000 0.000000
0.801685 0.000000 0.000000
0.971880 0.000000 0.000000
0.000000 0.173296 0.000000
0.174665 0.175290 0.000000
0.507432 0.182346 0.000000
0.810736 0.192330 0.000000
0.973629 0.200919 0.000000
0.000000 0.513839 0.000000
0.191903 0.523007 0.000000
0.546593 0.546624 0.000000
0.834476 0.570026 0.000000
0.977449 0.584173 0.000000
0.000000 0.825306 0.000000
0.234828 0.831207 0.000000
0.595450 0.845658 0.000000
0.857714 0.857692 0.000000
0.980929 0.864115 0.000000
0.000000 0.976838 0.000000
0.265543 0.977823 0.000000
0.624762 0.980103 0.000000
0.870072 0.981827 0.000000
0.982684 0.982678 0.000000
0.000000 0.000000 0.170720
0.171905 0.000000 0.171642
0.499320 0.000000 0.174838
0.802920 0.000000 0.179829
0.972157 0.000000 0.183898
0.000000 0.173909 0.173024
0.175478 0.176190 0.174940
0.509707 0.184082 0.181578
0.812597 0.195345 0.191386
0.973886 0.205332 0.200171
0.000000 0.516862 0.186114
0.194970 0.526587 0.193159
0.551183 0.551216 0.218328
0.836831 0.575381 0.244976
0.977812 0.589768 0.260776
0.000000 0.827365 0.221262
0.240631 0.833466 0.236756
0.601148 0.848165 0.273221
0.860182 0.860167 0.302924
0.981289 0.866489 0.318536
0.000000 0.977186 0.250517
0.271775 0.978191 0.267527
0.630367 0.980469 0.305063
0.872312 0.982151 0.332793
0.982983 0.982977 0.346308
0.000000 0.000000 0.494027
0.172902 0.000000 0.495823
0.502340 0.000000 0.502313
0.806068 0.000000 0.512216
0.972857 0.000000 0.520093
0.000000 0.175559 0.498655
0.177617 0.178547 0.502482
0.515553 0.188490 0.515502
0.816637 0.203600 0.531404
0.974536 0.215904 0.541728
0.000000 0.524480 0.524307
0.203413 0.534980 0.534894
0.561998 0.562029 0.561980
0.842239 0.587645 0.587613
0.978645 0.602419 0.602394
0.000000 0.832241 0.564906
0.253897 0.838693 0.579661
0.613923 0.853793 0.613916
0.865623 0.865606 0.640774
0.982061 0.871656 0.654539
0.000000 0.978006 0.592876
0.285679 0.979028 0.608511
0.642662 0.981272 0.642668
0.877093 0.982862 0.666854
0.983624 0.983622 0.678396
0.000000 0.000000 0.795743
0.173915 0.000000 0.797081
0.505395 0.000000 0.801945
0.809129 0.000000 0.809133
0.973516 0.000000 0.814720
0.000000 0.177241 0.799203
0.179731 0.180880 0.802011
0.520929 0.192941 0.811118
0.819824 0.211683 0.819834
0.975116 0.225028 0.825255
0.000000 0.531106 0.817132
0.211514 0.542181 0.822146
0.571080 0.571104 0.834965
0.846599 0.597548 0.846608
0.979304 0.612450 0.853172
0.000000 0.836305 0.836328
0.264643 0.842962 0.842990
0.623923 0.858186 0.858218
0.869735 0.869718 0.869747
0.982633 0.875473 0.875499
0.000000 0.978664 0.848965
0.296564 0.979685 0.855805
0.651934 0.981886 0.870546
0.880559 0.983388 0.880566
0.984106 0.984100 0.885388
0.000000 0.000000 0.970370
0.174581 0.000000 0.970626
0.507323 0.000000 0.971556
0.811023 0.000000 0.972887
0.973907 0.000000 0.973908
0.000000 0.178315 0.971031
0.181065 0.182346 0.971560
0.524130 0.195823 0.973195
0.821718 0.216410 0.974573
0.975462 0.230239 0.975464
0.000000 0.534784 0.974198
0.216251 0.546342 0.974956
0.576211 0.576231 0.976929
0.848995 0.603002 0.978676
0.979660 0.617922 0.979666
0.000000 0.838589 0.977135
0.270568 0.845324 0.978136
0.629315 0.860569 0.980422
0.871907 0.871885 0.982101
0.982925 0.877460 0.982931
0.000000 0.979017 0.979035
0.302432 0.980040 0.980055
0.656804 0.982207 0.982221
0.882356 0.983655 0.983667
0.984366 0.984356 0.984368
