Assets/Textures/Provis3D-001.cube
TITLE "Generated by Foundry::LUT"
LUT_3D_SIZE 32
0.000000 0.000000 0.000000
0.015554 0.000000 0.000000
0.033457 0.000000 0.000000
0.056995 0.000000 0.000000
0.080799 0.000000 0.000000
0.104602 0.000000 0.000000
0.128406 0.000000 0.000000
0.171532 0.000000 0.000000
0.212779 0.000000 0.000000
0.254813 0.000000 0.000000
0.302814 0.000000 0.000000
0.350367 0.000000 0.000000
0.399821 0.000000 0.000000
0.449583 0.000000 0.000000
0.498178 0.000000 0.000000
0.545396 0.000000 0.000000
0.591542 0.000000 0.000000
0.636768 0.000000 0.000000
0.680832 0.000000 0.000000
0.723259 0.000000 0.000000
0.763669 0.000000 0.000000
0.801685 0.000000 0.000000
0.836414 0.000000 0.000000
0.867926 0.000000 0.000000
0.895649 0.000000 0.000000
0.919903 0.000000 0.000000
0.940407 0.000000 0.000000
0.957623 0.000000 0.000000
0.971880 0.000000 0.000000
0.983491 0.000000 0.000000
0.992761 0.000000 0.000000
1.000000 0.000000 0.000000
0.000000 0.015763 0.000000
0.015579 0.015778 0.000000
0.033511 0.015796 0.000000
0.057070 0.015821 0.000000
0.080890 0.015855 0.000000
0.104709 0.015899 0.000000
0.128529 0.015953 0.000000
0.171696 0.016044 0.000000
0.212979 0.016155 0.000000
0.255053 0.016279 0.000000
0.303106 0.016409 0.000000
0.350711 0.016555 0.000000
0.400218 0.016719 0.000000
0.450030 0.016898 0.000000
0.498668 0.017089 0.000000
0.545921 0.017288 0.000000
0.592093 0.017496 0.000000
0.637335 0.017716 0.000000
0.681400 0.017943 0.000000
0.723815 0.018176 0.000000
0.764200 0.018415 0.000000
0.802180 0.018650 0.000000
0.836861 0.018882 0.000000
0.868316 0.019100 0.000000
0.895980 0.019298 0.000000
0.920174 0.019481 0.000000
0.940616 0.019658 0.000000
0.957775 0.019859 0.000000
0.971983 0.020045 0.000000
0.983552 0.020201 0.000000
0.992788 0.020324 0.000000
1.000000 0.020421 0.000000
0.000000 0.033906 0.000000
0.015608 0.033939 0.000000
0.033573 0.033977 0.000000
0.057157 0.034032 0.000000
0.080995 0.034105 0.000000
0.104833 0.034199 0.000000
0.128670 0.034315 0.000000
0.171884 0.034511 0.000000
0.213210 0.034749 0.000000
0.255330 0.035016 0.000000
0.303443 0.035296 0.000000
0.351106 0.035611 0.000000
0.400674 0.035963 0.000000
0.450544 0.036348 0.000000
0.499232 0.036759 0.000000
0.546525 0.037186 0.000000
0.592727 0.037634 0.000000
0.637986 0.038108 0.000000
0.682053 0.038596 0.000000
0.724455 0.039097 0.000000
0.764812 0.039611 0.000000
0.802749 0.040116 0.000000
0.837376 0.040613 0.000000
0.868765 0.041070 0.000000
0.896360 0.041485 0.000000
0.920485 0.041864 0.000000
0.940856 0.042231 0.000000
0.957950 0.042644 0.000000
0.972101 0.043022 0.000000
0.983622 0.043341 0.000000
0.992819 0.043590 0.000000
1.000000 0.043785 0.000000
0.000000 0.057620 0.000000
0.015650 0.057665 0.000000
0.033663 0.057717 0.000000
0.057282 0.057793 0.000000
0.081146 0.057894 0.000000
0.105011 0.058024 0.000000
0.128875 0.058184 0.000000
0.172155 0.058453 0.000000
0.213543 0.058778 0.000000
0.255730 0.059141 0.000000
0.303930 0.059520 0.000000
0.351676 0.059945 0.000000
0.401333 0.060417 0.000000
0.451286 0.060931 0.000000
0.500046 0.061475 0.000000
0.547397 0.062037 0.000000
0.593643 0.062622 0.000000
0.638928 0.063237 0.000000
0.682997 0.063866 0.000000
0.725380 0.064507 0.000000
0.765696 0.065159 0.000000
0.803572 0.065794 0.000000
0.838120 0.066420 0.000000
0.869415 0.067000 0.000000
0.896911 0.067527 0.000000
0.920936 0.068008 0.000000
0.941204 0.068474 0.000000
0.958202 0.068999 0.000000
0.972272 0.069479 0.000000
0.983724 0.069884 0.000000
0.992864 0.070200 0.000000
1.000000 0.070448 0.000000
0.000000 0.081556 0.000000
0.015706 0.081611 0.000000
0.033784 0.081674 0.000000
0.057450 0.081766 0.000000
0.081350 0.081889 0.000000
0.105250 0.082046 0.000000
0.129150 0.082240 0.000000
0.172520 0.082566 0.000000
0.213991 0.082961 0.000000
0.256268 0.083401 0.000000
0.304584 0.083860 0.000000
0.352444 0.084376 0.000000
0.402219 0.084948 0.000000
0.452283 0.085570 0.000000
0.501141 0.086230 0.000000
0.548569 0.086913 0.000000
0.594874 0.087621 0.000000
0.640193 0.088367 0.000000
0.684267 0.089130 0.000000
0.726625 0.089907 0.000000
0.766884 0.090697 0.000000
0.804679 0.091468 0.000000
0.839121 0.092226 0.000000
0.870290 0.092930 0.000000
0.897651 0.093569 0.000000
0.921544 0.094152 0.000000
0.941673 0.094717 0.000000
0.958542 0.095353 0.000000
0.972502 0.095936 0.000000
0.983862 0.096427 0.000000
0.992924 0.096810 0.000000
1.000000 0.097111 0.000000
0.000000 0.105492 0.000000
0.015778 0.105557 0.000000
0.033939 0.105631 0.000000
0.057664 0.105739 0.000000
0.081610 0.105884 0.000000
0.105556 0.106068 0.000000
0.129501 0.106296 0.000000
0.172986 0.106679 0.000000
0.214563 0.107143 0.000000
0.256954 0.107660 0.000000
0.305417 0.108200 0.000000
0.353421 0.108806 0.000000
0.403349 0.109479 0.000000
0.453555 0.110210 0.000000
0.502536 0.110985 0.000000
0.550063 0.111788 0.000000
0.596443 0.112620 0.000000
0.641807 0.113497 0.000000
0.685885 0.114394 0.000000
0.728211 0.115307 0.000000
0.768401 0.116236 0.000000
0.806091 0.117141 0.000000
0.840398 0.118033 0.000000
0.871406 0.118859 0.000000
0.898597 0.119611 0.000000
0.922319 0.120296 0.000000
0.942271 0.120960 0.000000
0.958977 0.121708 0.000000
0.972796 0.122393 0.000000
0.984038 0.122970 0.000000
0.993001 0.123420 0.000000
1.000000 0.123774 0.000000
0.000000 0.129428 0.000000
0.015867 0.129503 0.000000
0.034129 0.129588 0.000000
0.057928 0.129712 0.000000
0.081930 0.129878 0.000000
0.105931 0.130091 0.000000
0.129933 0.130352 0.000000
0.173559 0.130792 0.000000
0.215265 0.131325 0.000000
0.257796 0.131920 0.000000
0.306441 0.132541 0.000000
0.354622 0.133237 0.000000
0.404735 0.134010 0.000000
0.455116 0.134850 0.000000
0.504248 0.135741 0.000000
0.551898 0.136663 0.000000
0.598370 0.137620 0.000000
0.643789 0.138627 0.000000
0.687873 0.139658 0.000000
0.730161 0.140707 0.000000
0.770264 0.141775 0.000000
0.807828 0.142815 0.000000
0.841970 0.143839 0.000000
0.872779 0.144789 0.000000
0.899761 0.145653 0.000000
0.923274 0.146440 0.000000
0.943008 0.147204 0.000000
0.959512 0.148063 0.000000
0.973159 0.148850 0.000000
0.984254 0.149513 0.000000
0.993096 0.150030 0.000000
1.000000 0.150436 0.000000
0.000000 0.173296 0.000000
0.016040 0.173405 0.000000
0.034502 0.173530 0.000000
0.058440 0.173712 0.000000
0.082551 0.173956 0.000000
0.106661 0.174267 0.000000
0.130772 0.174651 0.000000
0.174665 0.175290 0.000000
0.216619 0.176064 0.000000
0.259417 0.176925 0.000000
0.308407 0.177817 0.000000
0.356915 0.178814 0.000000
0.407355 0.179917 0.000000
0.458038 0.181098 0.000000
0.507432 0.182346 0.000000
0.555288 0.183636 0.000000
0.601902 0.184965 0.000000
0.647398 0.186361 0.000000
0.691466 0.187787 0.000000
0.733661 0.189234 0.000000
0.773550 0.190741 0.000000
0.810736 0.192330 0.000000
0.844449 0.193888 0.000000
0.874828 0.195344 0.000000
0.901411 0.196667 0.000000
0.924557 0.197869 0.000000
0.943974 0.198948 0.000000
0.960209 0.199999 0.000000
0.973629 0.200919 0.000000
0.984535 0.201682 0.000000
0.993219 0.202290 0.000000
1.000000 0.202768 0.000000
0.000000 0.215187 0.000000
0.016253 0.215327 0.000000
0.034960 0.215488 0.000000
0.059065 0.215721 0.000000
0.083308 0.216035 0.000000
0.107552 0.216435 0.000000
0.131795 0.216927 0.000000
0.176014 0.217745 0.000000
0.218269 0.218734 0.000000
0.261391 0.219833 0.000000
0.310800 0.220968 0.000000
0.359704 0.222236 0.000000
0.410541 0.223635 0.000000
0.461587 0.225122 0.000000
0.511297 0.226690 0.000000
0.559404 0.228312 0.000000
0.606188 0.229977 0.000000
0.651776 0.231724 0.000000
0.695825 0.233508 0.000000
0.737907 0.235315 0.000000
0.777533 0.237215 0.000000
0.814250 0.239286 0.000000
0.847432 0.241313 0.000000
0.877283 0.243212 0.000000
0.903380 0.244938 0.000000
0.926080 0.246502 0.000000
0.945118 0.247864 0.000000
0.961036 0.249099 0.000000
0.974186 0.250155 0.000000
0.984866 0.251023 0.000000
0.993365 0.251722 0.000000
1.000000 0.252271 0.000000
0.000000 0.258162 0.000000
0.016511 0.258341 0.000000
0.035514 0.258547 0.000000
0.059815 0.258845 0.000000
0.084218 0.259246 0.000000
0.108621 0.259757 0.000000
0.133024 0.260386 0.000000
0.177629 0.261425 0.000000
0.220241 0.262679 0.000000
0.263745 0.264068 0.000000
0.313637 0.265492 0.000000
0.362997 0.267080 0.000000
0.414290 0.268825 0.000000
0.465746 0.270671 0.000000
0.515806 0.272611 0.000000
0.564171 0.274612 0.000000
0.611089 0.276658 0.000000
0.656697 0.278799 0.000000
0.700590 0.280996 0.000000
0.742413 0.283216 0.000000
0.781665 0.285520 0.000000
0.817879 0.287993 0.000000
0.850516 0.290387 0.000000
0.879828 0.292632 0.000000
0.905423 0.294664 0.000000
0.927664 0.296503 0.000000
0.946307 0.298080 0.000000
0.961895 0.299462 0.000000
0.974766 0.300626 0.000000
0.985212 0.301581 0.000000
0.993516 0.302355 0.000000
1.000000 0.302963 0.000000
0.000000 0.307871 0.000000
0.016839 0.308112 0.000000
0.036220 0.308389 0.000000
0.060760 0.308790 0.000000
0.085364 0.309328 0.000000
0.109968 0.310015 0.000000
0.134571 0.310860 0.000000
0.179654 0.312240 0.000000
0.222707 0.313903 0.000000
0.266670 0.315737 0.000000
0.317119 0.317591 0.000000
0.367005 0.319650 0.000000
0.418821 0.321898 0.000000
0.470725 0.324263 0.000000
0.521142 0.326735 0.000000
0.569717 0.329270 0.000000
0.616610 0.331849 0.000000
0.661982 0.334528 0.000000
0.705309 0.337313 0.000000
0.746454 0.340114 0.000000
0.785070 0.342911 0.000000
0.820808 0.345710 0.000000
0.853005 0.348352 0.000000
0.881896 0.350820 0.000000
0.907087 0.353038 0.000000
0.928960 0.355038 0.000000
0.947277 0.356734 0.000000
0.962595 0.358203 0.000000
0.975240 0.359427 0.000000
0.985495 0.360436 0.000000
0.993640 0.361255 0.000000
1.000000 0.361899 0.000000
0.000000 0.357349 0.000000
0.017230 0.357652 0.000000
0.037061 0.358001 0.000000
0.061873 0.358505 0.000000
0.086713 0.359183 0.000000
0.111553 0.360048 0.000000
0.136393 0.361110 0.000000
0.182025 0.362834 0.000000
0.225588 0.364909 0.000000
0.270079 0.367188 0.000000
0.321166 0.369470 0.000000
0.371648 0.371991 0.000000
0.424045 0.374721 0.000000
0.476363 0.377546 0.000000
0.527031 0.380463 0.000000
0.575651 0.383419 0.000000
0.622389 0.386418 0.000000
0.667423 0.389506 0.000000
0.710225 0.392688 0.000000
0.750754 0.395874 0.000000
0.788766 0.399000 0.000000
0.824004 0.402031 0.000000
0.855723 0.404859 0.000000
0.884155 0.407486 0.000000
0.908909 0.409837 0.000000
0.930383 0.411945 0.000000
0.948347 0.413730 0.000000
0.963368 0.415266 0.000000
0.975758 0.416535 0.000000
0.985803 0.417586 0.000000
0.993775 0.418436 0.000000
1.000000 0.419105 0.000000
0.000000 0.409280 0.000000
0.017708 0.409654 0.000000
0.038091 0.410084 0.000000
0.063215 0.410705 0.000000
0.088340 0.411541 0.000000
0.113465 0.412606 0.000000
0.138591 0.413914 0.000000
0.184865 0.416025 0.000000
0.229026 0.418564 0.000000
0.274134 0.421341 0.000000
0.325958 0.424095 0.000000
0.377118 0.427118 0.000000
0.430156 0.430354 0.000000
0.482765 0.433609 0.000000
0.533421 0.436897 0.000000
0.581723 0.440163 0.000000
0.628032 0.443473 0.000000
0.672534 0.446835 0.000000
0.714961 0.450191 0.000000
0.755077 0.453534 0.000000
0.792629 0.456795 0.000000
0.827378 0.459923 0.000000
0.858592 0.462844 0.000000
0.886540 0.465529 0.000000
0.910841 0.467924 0.000000
0.931899 0.470056 0.000000
0.949496 0.471874 0.000000
0.964201 0.473433 0.000000
0.976304 0.474712 0.000000
0.986123 0.475776 0.000000
0.993915 0.476629 0.000000
1.000000 0.477301 0.000000
0.000000 0.462071 0.000000
0.018273 0.462518 0.000000
0.039305 0.463032 0.000000
0.064770 0.463775 0.000000
0.090226 0.464773 0.000000
0.115682 0.466046 0.000000
0.141138 0.467608 0.000000
0.188144 0.470116 0.000000
0.232988 0.473130 0.000000
0.278799 0.476376 0.000000
0.331457 0.479444 0.000000
0.383254 0.482724 0.000000
0.436689 0.486056 0.000000
0.489342 0.489447 0.000000
0.539891 0.492885 0.000000
0.587956 0.496298 0.000000
0.633930 0.499736 0.000000
0.678019 0.503192 0.000000
0.720007 0.506604 0.000000
0.759634 0.509976 0.000000
0.796665 0.513254 0.000000
0.830885 0.516382 0.000000
0.861575 0.519274 0.000000
0.889003 0.521942 0.000000
0.912827 0.524308 0.000000
0.933450 0.526413 0.000000
0.950668 0.528190 0.000000
0.965039 0.529713 0.000000
0.976874 0.530973 0.000000
0.986459 0.532018 0.000000
0.994062 0.532843 0.000000
1.000000 0.533492 0.000000
0.000000 0.513839 0.000000
0.018914 0.514356 0.000000
0.040679 0.514950 0.000000
0.066504 0.515808 0.000000
0.092328 0.516962 0.000000
0.118152 0.518432 0.000000
0.143977 0.520236 0.000000
0.191903 0.523007 0.000000
0.237594 0.526324 0.000000
0.284189 0.529838 0.000000
0.337619 0.532981 0.000000
0.389955 0.536325 0.000000
0.443611 0.539688 0.000000
0.496202 0.543127 0.000000
0.546593 0.546624 0.000000
0.594418 0.550092 0.000000
0.640055 0.553554 0.000000
0.683734 0.557004 0.000000
0.725244 0.560404 0.000000
0.764338 0.563736 0.000000
0.800814 0.566960 0.000000
0.834476 0.570026 0.000000
0.864616 0.572846 0.000000
0.891509 0.575445 0.000000
0.914840 0.577742 0.000000
0.935023 0.579781 0.000000
0.951855 0.581495 0.000000
0.965890 0.582958 0.000000
0.977449 0.584173 0.000000
0.986800 0.585182 0.000000
0.994212 0.585973 0.000000
1.000000 0.586593 0.000000
0.000000 0.564329 0.000000
0.019705 0.564894 0.000000
0.042327 0.565543 0.000000
0.068596 0.566481 0.000000
0.094865 0.567741 0.000000
0.121134 0.569348 0.000000
0.147404 0.571319 0.000000
0.196406 0.574149 0.000000
0.243090 0.577515 0.000000
0.290487 0.581038 0.000000
0.344456 0.584043 0.000000
0.397147 0.587300 0.000000
0.450854 0.590700 0.000000
0.503327 0.594139 0.000000
0.553517 0.597615 0.000000
0.601042 0.601044 0.000000
0.646294 0.604430 0.000000
0.689511 0.607783 0.000000
0.730510 0.611089 0.000000
0.769050 0.614309 0.000000
0.804951 0.617399 0.000000
0.838040 0.620334 0.000000
0.867614 0.623035 0.000000
0.893977 0.625505 0.000000
0.916815 0.627692 0.000000
0.936570 0.629617 0.000000
0.953017 0.631245 0.000000
0.966730 0.632624 0.000000
0.978002 0.633766 0.000000
0.987131 0.634718 0.000000
0.994358 0.635465 0.000000
1.000000 0.636051 0.000000
0.000000 0.613697 0.000000
0.020885 0.614240 0.000000
0.044715 0.614864 0.000000
0.071628 0.615765 0.000000
0.098542 0.616977 0.000000
0.125456 0.618522 0.000000
0.152369 0.620420 0.000000
0.202164 0.623143 0.000000
0.249656 0.626385 0.000000
0.297662 0.629798 0.000000
0.351842 0.632773 0.000000
0.404693 0.635988 0.000000
0.458385 0.639325 0.000000
0.510691 0.642677 0.000000
0.560622 0.646045 0.000000
0.607774 0.649343 0.000000
0.652603 0.652590 0.000000
0.695340 0.655791 0.000000
0.735788 0.658921 0.000000
0.773753 0.661962 0.000000
0.809066 0.664872 0.000000
0.841574 0.667634 0.000000
0.870580 0.670148 0.000000
0.896406 0.672461 0.000000
0.918765 0.674493 0.000000
0.938085 0.676288 0.000000
0.954147 0.677798 0.000000
0.967540 0.679075 0.000000
0.978550 0.680132 0.000000
0.987448 0.681000 0.000000
0.994495 0.681690 0.000000
1.000000 0.682232 0.000000
0.000000 0.661771 0.000000
0.022286 0.662252 0.000000
0.047448 0.662805 0.000000
0.075099 0.663604 0.000000
0.102751 0.664678 0.000000
0.130402 0.666049 0.000000
0.158053 0.667733 0.000000
0.208504 0.670257 0.000000
0.256711 0.673278 0.000000
0.305255 0.676486 0.000000
0.359566 0.679361 0.000000
0.412517 0.682458 0.000000
0.466144 0.685647 0.000000
0.518202 0.688826 0.000000
0.567820 0.692009 0.000000
0.614584 0.695118 0.000000
0.658942 0.698168 0.000000
0.701176 0.701161 0.000000
0.741048 0.704057 0.000000
0.778427 0.706856 0.000000
0.813143 0.709547 0.000000
0.845057 0.712088 0.000000
0.873504 0.714410 0.000000
0.898806 0.716508 0.000000
0.920683 0.718359 0.000000
0.939567 0.720004 0.000000
0.955253 0.721378 0.000000
0.968322 0.722533 0.000000
0.979071 0.723492 0.000000
0.987750 0.724279 0.000000
0.994627 0.724905 0.000000
1.000000 0.725398 0.000000
0.000000 0.707168 0.000000
0.023800 0.707605 0.000000
0.050294 0.708107 0.000000
0.078713 0.708833 0.000000
0.107133 0.709810 0.000000
0.135552 0.711057 0.000000
0.163972 0.712589 0.000000
0.215074 0.714927 0.000000
0.263996 0.717731 0.000000
0.313068 0.720722 0.000000
0.367463 0.723437 0.000000
0.420464 0.726350 0.000000
0.473959 0.729323 0.000000
0.525744 0.732272 0.000000
0.575023 0.735204 0.000000
0.621360 0.738046 0.000000
0.665233 0.740834 0.000000
0.706916 0.743555 0.000000
0.746214 0.746189 0.000000
0.782999 0.748730 0.000000
0.817131 0.751154 0.000000
0.848450 0.753436 0.000000
0.876329 0.755520 0.000000
0.901112 0.757396 0.000000
0.922526 0.759054 0.000000
0.940982 0.760527 0.000000
0.956312 0.761745 0.000000
0.969089 0.762773 0.000000
0.979581 0.763640 0.000000
0.988061 0.764333 0.000000
0.994764 0.764891 0.000000
1.000000 0.765331 0.000000
0.000000 0.749448 0.000000
0.025408 0.749860 0.000000
0.053200 0.750333 0.000000
0.082404 0.751018 0.000000
0.111608 0.751939 0.000000
0.140812 0.753114 0.000000
0.170016 0.754560 0.000000
0.221757 0.756749 0.000000
0.271384 0.759373 0.000000
0.320962 0.762160 0.000000
0.375382 0.764645 0.000000
0.428390 0.767304 0.000000
0.481728 0.770003 0.000000
0.533189 0.772676 0.000000
0.582091 0.775328 0.000000
0.627991 0.777884 0.000000
0.671363 0.780367 0.000000
0.712500 0.782791 0.000000
0.751228 0.785144 0.000000
0.787429 0.787392 0.000000
0.820967 0.789534 0.000000
0.851719 0.791551 0.000000
0.879053 0.793374 0.000000
0.903331 0.795028 0.000000
0.924285 0.796485 0.000000
0.942359 0.797759 0.000000
0.957338 0.798837 0.000000
0.969819 0.799731 0.000000
0.980062 0.800481 0.000000
0.988347 0.801090 0.000000
0.994891 0.801572 0.000000
1.000000 0.801951 0.000000
0.000000 0.788925 0.000000
0.027068 0.789301 0.000000
0.056092 0.789734 0.000000
0.086077 0.790360 0.000000
0.116061 0.791202 0.000000
0.146046 0.792277 0.000000
0.176030 0.793600 0.000000
0.228380 0.795588 0.000000
0.278685 0.797971 0.000000
0.328743 0.800494 0.000000
0.383157 0.802716 0.000000
0.436139 0.805091 0.000000
0.489281 0.807490 0.000000
0.540418 0.809852 0.000000
0.588939 0.812188 0.000000
0.634383 0.814434 0.000000
0.677254 0.816609 0.000000
0.717850 0.818723 0.000000
0.756023 0.820770 0.000000
0.791645 0.822724 0.000000
0.824619 0.824580 0.000000
0.854815 0.826314 0.000000
0.881630 0.827887 0.000000
0.905424 0.829308 0.000000
0.925947 0.830560 0.000000
0.943639 0.831651 0.000000
0.958300 0.832571 0.000000
0.970498 0.833335 0.000000
0.980512 0.833978 0.000000
0.988604 0.834503 0.000000
0.995002 0.834914 0.000000
1.000000 0.835236 0.000000
0.000000 0.825306 0.000000
0.028750 0.825639 0.000000
0.058919 0.826023 0.000000
0.089666 0.826579 0.000000
0.120413 0.827326 0.000000
0.151161 0.828281 0.000000
0.181908 0.829455 0.000000
0.234828 0.831207 0.000000
0.285771 0.833308 0.000000
0.336274 0.835527 0.000000
0.390653 0.837465 0.000000
0.443582 0.839534 0.000000
0.496510 0.841617 0.000000
0.547316 0.843650 0.000000
0.595450 0.845658 0.000000
0.640441 0.847586 0.000000
0.682836 0.849445 0.000000
0.722916 0.851264 0.000000
0.760539 0.852989 0.000000
0.795599 0.854649 0.000000
0.828029 0.856223 0.000000
0.857714 0.857692 0.000000
0.884028 0.859012 0.000000
0.907382 0.860201 0.000000
0.927497 0.861256 0.000000
0.944826 0.862179 0.000000
0.959187 0.862936 0.000000
0.971132 0.863585 0.000000
0.980929 0.864115 0.000000
0.988846 0.864542 0.000000
0.995107 0.864883 0.000000
1.000000 0.865152 0.000000
0.000000 0.857717 0.000000
0.030382 0.858005 0.000000
0.061570 0.858336 0.000000
0.093033 0.858815 0.000000
0.124495 0.859460 0.000000
0.155958 0.860284 0.000000
0.187421 0.861298 0.000000
0.240864 0.862807 0.000000
0.292392 0.864615 0.000000
0.343303 0.866521 0.000000
0.397632 0.868169 0.000000
0.450492 0.869922 0.000000
0.503195 0.871676 0.000000
0.553653 0.873387 0.000000
0.601408 0.875071 0.000000
0.645984 0.876684 0.000000
0.687921 0.878242 0.000000
0.727512 0.879740 0.000000
0.764619 0.881193 0.000000
0.799178 0.882567 0.000000
0.831109 0.883859 0.000000
0.860310 0.885076 0.000000
0.886191 0.886172 0.000000
0.909117 0.887157 0.000000
0.928874 0.888013 0.000000
0.945888 0.888756 0.000000
0.959971 0.889388 0.000000
0.971703 0.889915 0.000000
0.981310 0.890353 0.000000
0.989074 0.890709 0.000000
0.995208 0.890988 0.000000
1.000000 0.891206 0.000000
0.000000 0.886504 0.000000
0.031946 0.886745 0.000000
0.064033 0.887022 0.000000
0.096161 0.887423 0.000000
0.128289 0.887963 0.000000
0.160416 0.888653 0.000000
0.192544 0.889502 0.000000
0.246459 0.890757 0.000000
0.298516 0.892262 0.000000
0.349788 0.893845 0.000000
0.404044 0.895205 0.000000
0.456818 0.896651 0.000000
0.509297 0.898098 0.000000
0.559442 0.899504 0.000000
0.606850 0.900882 0.000000
0.651026 0.902196 0.000000
0.692519 0.903466 0.000000
0.731652 0.904683 0.000000
0.768295 0.905855 0.000000
0.802408 0.906974 0.000000
0.833881 0.908019 0.000000
0.862636 0.909001 0.000000
0.888127 0.909873 0.000000
0.910686 0.910664 0.000000
0.930107 0.911345 0.000000
0.946828 0.911950 0.000000
0.960678 0.912451 0.000000
0.972205 0.912871 0.000000
0.981647 0.913218 0.000000
0.989269 0.913502 0.000000
0.995292 0.913719 0.000000
1.000000 0.913889 0.000000
0.000000 0.911294 0.000000
0.033384 0.911489 0.000000
0.066236 0.911714 0.000000
0.098959 0.912040 0.000000
0.131681 0.912478 0.000000
0.164404 0.913038 0.000000
0.197126 0.913727 0.000000
0.251462 0.914747 0.000000
0.303991 0.915969 0.000000
0.355578 0.917253 0.000000
0.409746 0.918347 0.000000
0.462427 0.919509 0.000000
0.514699 0.920668 0.000000
0.564542 0.921792 0.000000
0.611624 0.922890 0.000000
0.655444 0.923934 0.000000
0.696547 0.924944 0.000000
0.735281 0.925904 0.000000
0.771521 0.926842 0.000000
0.805213 0.927714 0.000000
0.836282 0.928533 0.000000
0.864664 0.929308 0.000000
0.889792 0.930000 0.000000
0.912028 0.930613 0.000000
0.931174 0.931155 0.000000
0.947651 0.931633 0.000000
0.961289 0.932019 0.000000
0.972630 0.932352 0.000000
0.981928 0.932616 0.000000
0.989442 0.932835 0.000000
0.995370 0.933006 0.000000
1.000000 0.933140 0.000000
0.000000 0.932605 0.000000
0.034693 0.932760 0.000000
0.068195 0.932938 0.000000
0.101446 0.933195 0.000000
0.134697 0.933542 0.000000
0.167948 0.933985 0.000000
0.201199 0.934530 0.000000
0.255894 0.935331 0.000000
0.308828 0.936290 0.000000
0.360687 0.937296 0.000000
0.414777 0.938143 0.000000
0.467373 0.939045 0.000000
0.519455 0.939946 0.000000
0.569048 0.940814 0.000000
0.615835 0.941662 0.000000
0.659309 0.942470 0.000000
0.700072 0.943256 0.000000
0.738443 0.943986 0.000000
0.774311 0.944698 0.000000
0.807655 0.945366 0.000000
0.838370 0.946008 0.000000
0.866418 0.946583 0.000000
0.891246 0.947118 0.000000
0.913205 0.947597 0.000000
0.932097 0.948000 0.000000
0.948369 0.948367 0.000000
0.961821 0.948662 0.000000
0.973007 0.948906 0.000000
0.982169 0.949102 0.000000
0.989580 0.949278 0.000000
0.995430 0.949408 0.000000
1.000000 0.949508 0.000000
0.000000 0.950234 0.000000
0.035833 0.950351 0.000000
0.069867 0.950485 0.000000
0.103569 0.950680 0.000000
0.137272 0.950942 0.000000
0.170974 0.951278 0.000000
0.204676 0.951691 0.000000
0.259672 0.952295 0.000000
0.312945 0.953018 0.000000
0.365031 0.953777 0.000000
0.419047 0.954415 0.000000
0.471565 0.955093 0.000000
0.523483 0.955769 0.000000
0.572828 0.956417 0.000000
0.619352 0.957052 0.000000
0.662554 0.957661 0.000000
0.703030 0.958237 0.000000
0.741083 0.958785 0.000000
0.776652 0.959305 0.000000
0.809678 0.959799 0.000000
0.840104 0.960268 0.000000
0.867876 0.960700 0.000000
0.892441 0.961095 0.000000
0.914163 0.961448 0.000000
0.932853 0.961742 0.000000
0.948931 0.962017 0.000000
0.962239 0.962224 0.000000
0.973308 0.962405 0.000000
0.982370 0.962553 0.000000
0.989699 0.962676 0.000000
0.995482 0.962775 0.000000
1.000000 0.962853 0.000000
0.000000 0.964863 0.000000
0.036815 0.964947 0.000000
0.071281 0.965043 0.000000
0.105365 0.965183 0.000000
0.139449 0.965371 0.000000
0.173532 0.965611 0.000000
0.207616 0.965908 0.000000
0.262872 0.966342 0.000000
0.316436 0.966864 0.000000
0.368714 0.967410 0.000000
0.422661 0.967869 0.000000
0.475103 0.968356 0.000000
0.526869 0.968843 0.000000
0.576009 0.969305 0.000000
0.622314 0.969759 0.000000
0.665278 0.970191 0.000000
0.705503 0.970596 0.000000
0.743301 0.971001 0.000000
0.778604 0.971362 0.000000
0.811370 0.971712 0.000000
0.841545 0.972044 0.000000
0.869089 0.972349 0.000000
0.893434 0.972622 0.000000
